X: 32
T:Trip To Pakistan, The
M:4/4
L:1/8
R:reel
K:Bmin
|:BdfB d3 f|e3 d cdec|BdfB d3 f|edcd B2 BA:|
|:BdfB g3 e|f3 a fefd|BdfB g3 e|fedf e2 a2:|
|:cdfc dfcd|BcdB cdBc|AceA ceAc|edcd B2 BA:|

